X:14
T:The Irish Washer-woman    Jig  Allan's #14
C:Trad/Anon
B:Allan's Irish Fiddler (pub. Mozart Allen,  Glascow) date unknown
Z:FROM ALLAN'S TO NOTEWORTHY, FROM NOTEWORTHY TO ABC, MIDI AND .TXT BY VINCE
BRENNAN Dec. 2002 (HTTP://WWW.SOSYOURMOM.COM)
I:abc2nwc
M:6/8
L:1/8
K:G
(d/2c/2)|BGG DGG|BGB dcB|cAA EAA|cBcedc|
BGG DGG|BGB dcB|cBc Adc|BGG G2:|
|:(e/2f/2)|gfg GBd|gfg bag|fef FAd|fdf agf|
egg dgg|cgg Bgg|cBc Adc|BGG G2:|
